src/assets/images/icon-youtube.svg

<svg xmlns="http://www.w3.org/2000/svg" width="20" height="20"><path fill="#C4032B" d="M10 0C4.478 0 0 4.478 0 10c0 5.523 4.478 10 10 10 5.523 0 10-4.477 10-10 0-5.522-4.477-10-10-10zm3.7 14.077c-1.75.12-5.652.12-7.402 0-1.896-.13-2.117-1.059-2.131-4.077.014-3.024.237-3.947 2.131-4.077 1.75-.12 5.652-.12 7.403 0 1.897.13 2.117 1.059 2.132 4.077-.015 3.024-.237 3.947-2.132 4.077zM8.334 8.048l4.098 1.949-4.098 1.955V8.048z"/></svg>

<svg width="20" height="20" viewBox="0 0 20 20" fill="none" xmlns="http://www.w3.org/2000/svg">
<rect x="4" y="5" width="12" height="10" fill="white"/>
<path d="M10 0C4.478 0 0 4.478 0 10C0 15.523 4.478 20 10 20C15.523 20 20 15.523 20 10C20 4.478 15.523 0 10 0ZM13.7 14.077C11.95 14.197 8.048 14.197 6.298 14.077C4.402 13.947 4.181 13.018 4.167 10C4.181 6.976 4.404 6.053 6.298 5.923C8.048 5.803 11.95 5.803 13.701 5.923C15.598 6.053 15.818 6.982 15.833 10C15.818 13.024 15.596 13.947 13.701 14.077H13.7ZM8.334 8.048L12.432 9.997L8.334 11.952V8.048Z" fill="#C4032B"/>
</svg>
